!!!SOCIAL_FUNCTION:	cochiti
!!!PDT:	1957
!!!OTL: No_67_Antelope_Song.krn
!!!LING_GROUP: Keresan
!!!LANG: Tone
!!!REG: Southwest
**kern
*staff1
=1-
*clefF4
*k[f#c#g#d#]
*M2/4
16B^\LL
16B\J
8B\J
8F#\
8r
=2
16B^\LL
16B\J
8B\J
4F#\
=3
*M3/4
8B^\L
8B^\J
8F#\L
8F#\J
8F#\
8r
=4
*M2/4
16B^\LL
16B\J
8B\J
8F#\
8r
=5
16B^\LL
16B\J
8B\J
4F#\
=6
*M3/4
8B^\L
8B^\J
8F#\L
8F#\J
8F#\
8r
=7
*M2/4
16B\LL
16B\J
8B\J
8F#\L
8B\J
=8!|:
*M3/4
8c#\L
8G#\J
8G#\L
8F#\J
8c#\L
8A\J
=9
*M2/4
4B\
[4B\
=10
4B\]
8.r
16d#\
=11
2f#\
=12
*M5/8
8g#\L
8e\
8e\
16e\L
16c#\J
8c#\J
=13
*M2/4
4B\
8r
8f#\
=14
(8f#\L
8d#\J)
16r
(16d#\LK
8c#\J)
=15
*M3/8
4B\
8r
=16
*M2/4
16B\LL
16F#\J
8F#\J
8F#\L
8F#\J
=17
*M3/4
8F#\L
8F#\J
16F#\LL
16D#\
16D#\JJ
16r
16D#\LL
16D#\
16C#\JJ
16r
=18
*M2/4
4BB/
4r
=19
16D#^\LL
16D#\J
8BB\J
8D#^/L
8BB/J
=20
8D#^\L
8D#^\J
8BB^/L
16D#/Jk
16r
=21
4BB^/
8BB/
8r
=22
*M3/4
16D#/LK
8BB/
16BB/Jk
8BB/L
8BB/J
8BB/
8r
=23:|!|:
*M2/4
4f#\
4f#\
=24
16f#\LL
16c#\J
8c#\J
4f#\
=25
8.g#\L
16e\Jk
16e\LL
16c#\
16c#\JJ
16r
=26
8e\L
8B\J
8c#\
8r
=27
8e\L
16c#\Jk
16r
8c#\L
8e\J
=28
8c#\L
8A\J
8B\
8r
=29
*M3/4
8c#\L
8c#\J
8c#\L
16e\Jk
16r
8c#\L
8A\J
=30
2B\
4r
=31
*M2/4
2f#\
=32
16f#\LL
16f#\J
8c#\J
4f#\
=33
8.g#\L
16e\Jk
16e\LL
16e\
16c#\JJ
16r
=34
16c#\LL
16c#\J
8B\J
8c#\
8r
=35
*M5/8
4.c#\
16c#\LL
16A\J
8B\J
=36
*M3/4
4c#\
8c#\L
8e\J
8c#\L
8A\J
=37
2B\
4r
=38
*M2/4
2f#\
=39
8f#\L
16f#\L
16c#\JJ
4d#\
=40
*M3/4
8.g#\L
16e\Jk
16e\LL
16c#\J
8c#\J
16c#\LL
16c#\
16B\JJ
16r
=41
8c#\L
8e\J
8c#\L
8A\J
4c#\
=42
4B\
8B\L
8G#\J
8E\
8r
=43
!!pagebreak:default
*M2/4
16G#\LL
16E\
16.E\
32E\JJk
8E\L
8E\J
=44
16G#\LL
16E\
16.E\
32C#\JJk
8BB/
16r
16E\
=45
*M3/4
8E\
8r
8E/L
8C#/J
8C#/L
8C#/J
=46
8C#/
8r
8C#/
8r
8C#/
8r
=47:|!
=
*M3/4
8E\
8r
8E\
8r
8E\
8r
==
*-
